X:881
T:Bring Back the Child
S:Patrick Street
Z:Nigel Gatherer
M:12/8
L:1/8
K:G
gfe d2B cAA BGG | gfe d2B cAF G3 | gfe d2B cAA BGG | EFG A2B cAF G3 ||
EFG A2B cAA BGG | EFG A2B cAF G3 | EFG A2B cAA BGG | gfe d2B cAF G3 |]
<end>
<start>
